X: 6936
T: Cherry Blossom, The
R: jig
M: 6/8
K: Gmajor
D|:GBA F/G/AF|GB/c/d gdB|c2A BAG|EAG FED|
GBA F/G/AF|GB/c/d gdB|c2A B/c/dB|1 GBA G2D:|2 GBA GB/c/d||
|:g3 f/g/af|gba gdB|c2A ABc|def gba|
g3 fdB|cde dBG|c2A B/c/dB|1 GBA GB/c/d:|2 GBA G2||

